assets/images/circleci.svg

<svg width="24" height="24" viewBox="0 0 24 24" fill="none" xmlns="http://www.w3.org/2000/svg">
<path d="M8.91994 12C8.91994 10.4137 10.2207 9.14475 11.8146 9.14475C13.4138 9.14475 14.7183 10.4295 14.7183 12C14.7183 13.5705 13.4138 14.8552 11.8146 14.8552C10.2207 14.8552 8.91994 13.5705 8.91994 12ZM11.8153 0C6.12813 0 1.36392 3.84 0.0114231 9.02325C9.31323e-10 9.06225 0 9.0945 0 9.1455C0 9.4575 0.258163 9.72375 0.58258 9.72375H5.493C5.7268 9.72375 5.93241 9.591 6.01618 9.38775C7.03132 7.22775 9.24512 5.71575 11.8191 5.71575C15.3375 5.71575 18.2009 8.53575 18.2009 12.0045C18.2009 15.4733 15.3375 18.2933 11.8153 18.2933C9.24512 18.2933 7.02903 16.7933 6.01618 14.6213C5.91794 14.43 5.72299 14.2853 5.493 14.2853H0.58258C0.265017 14.2853 0 14.535 0 14.859C0 14.898 0.0152308 14.934 0.0152308 14.9797C1.35631 20.16 6.12813 24 11.8153 24C18.542 24 24 18.6248 24 12C24 5.379 18.542 0 11.8153 0Z" fill="#626262"/>
</svg>

<svg width="24" height="24" viewBox="0 0 24 24" fill="none" xmlns="http://www.w3.org/2000/svg"><path d="M8.92 12c0-1.586 1.3-2.855 2.895-2.855 1.599 0 2.903 1.285 2.903 2.855s-1.304 2.855-2.903 2.855C10.22 14.855 8.92 13.57 8.92 12Zm2.895-12C6.128 0 1.364 3.84.011 9.023a.583.583 0 0 0 .571.7h4.911c.234 0 .44-.132.523-.335a6.41 6.41 0 0 1 5.803-3.672c3.518 0 6.382 2.82 6.382 6.288 0 3.47-2.864 6.29-6.386 6.29-2.57 0-4.786-1.5-5.799-3.673a.599.599 0 0 0-.523-.336H.583A.576.576 0 0 0 0 14.86c0 .039.015.075.015.12C1.356 20.16 6.128 24 11.815 24 18.542 24 24 18.625 24 12c0-6.621-5.458-12-12.185-12Z" fill="#626262"/></svg>
